svgs/revolut.svg

<svg width="192" height="192" viewBox="0 0 192 192" fill="none" xmlns="http://www.w3.org/2000/svg">
<path d="M99 22C85.585 22 69.4361 23.9527 60.9227 25.1294C57.402 25.6161 54.697 28.424 54.2562 31.9507L39.138 152.896C37.9838 162.129 44.9312 170.568 54.2311 170.256C62.1395 169.991 68.9744 169.059 75.1667 167.137C80.2155 165.57 83.4272 160.867 84.1415 155.629L89 120L103.191 159.42C105.476 165.768 111.509 170.113 118.244 169.71C128.492 169.099 136.354 167.416 146.032 163.73C150.735 161.939 152.296 156.172 149.703 151.859C139.848 135.468 136.165 121.216 131 104C131 104 153 90 153 66C153 30 123 22 99 22Z" stroke="black" stroke-width="12" stroke-linejoin="round"/>
<path d="M85.9287 87.1893L90.2924 55.1893C90.6978 52.2164 93.2429 49.9552 96.2328 50.2059C112.14 51.5395 117.361 59.3017 116 72C114.858 82.6552 108.648 91.7335 91.8694 93.6345C88.2566 94.0438 85.4375 90.7919 85.9287 87.1893Z" fill="black"/>
</svg>

<svg xmlns="http://www.w3.org/2000/svg" width="192" height="192" fill="none" xmlns:v="https://vecta.io/nano"><path d="M99 22c-13.415 0-29.564 1.953-38.077 3.129-3.521.487-6.226 3.295-6.666 6.821L39.138 152.896c-1.154 9.233 5.793 17.672 15.093 17.36 7.908-.265 14.743-1.197 20.936-3.119 5.049-1.567 8.26-6.27 8.975-11.508L89 120l14.191 39.42c2.285 6.348 8.318 10.693 15.053 10.29 10.248-.611 18.11-2.294 27.788-5.98 4.703-1.791 6.264-7.558 3.671-11.871C139.848 135.468 136.165 121.216 131 104c0 0 22-14 22-38 0-36-30-44-54-44z" stroke="#000" stroke-width="12" stroke-linejoin="round"/><path d="M85.929 87.189l4.364-32c.405-2.973 2.951-5.234 5.94-4.983C112.14 51.54 117.361 59.302 116 72c-1.142 10.655-7.352 19.734-24.131 21.635-3.613.409-6.432-2.843-5.941-6.445z" fill="#000"/></svg>
